X: 30622
T: One To One
R: waltz
M: 3/4
K: Cmajor
C3D EG|A2G2A2|c3 GG c|E2 D4|
C3D EG|A2G2A2|c2 d2 de|d4 d2|
ec ce dc|A2 G2 GA|cG Gc GE|D2C4||
[1 C3D EG|Ac3G GE|D2C3D|C6:|
[2 C3 D EG|Ac GE DC|~A,2 G,3 A,|C6||
|:e2 e2 e2|d2 d2 d2|cd cA GE|~D2 C2 (3CEG|
e4 (3CEG|d4 (3CEG|cA GE DC|D6|
ed ce dc|~A2 G2 GA|cG GA GE|~D2 C4|
[1 C3D EG|Ac3GG|E D2 C3D|C6:|
[2 C3D EG|Ac GE DC|A,2 G,2, A,2|C6:|

